src/assets/img/icons/dark/icon-grow.svg

<svg width="20" height="24" viewBox="0 0 20 24" fill="none" xmlns="http://www.w3.org/2000/svg">
<path d="M17.9678 14.7702V6.42087C17.9678 6.16157 17.7557 5.98242 17.4964 5.98242H15.6719C15.4126 5.98242 15.1863 6.16157 15.1863 6.42087V13.9546C14.8845 13.964 14.5828 14.0018 14.2905 14.0725V8.88183C14.2905 8.62253 14.0689 8.43395 13.8096 8.43395H11.9851C11.7258 8.43395 11.509 8.61782 11.509 8.88183V15.9205C10.9479 16.7079 10.6462 17.6555 10.6509 18.6267C10.6509 21.2102 12.7442 23.3034 15.323 23.3034C17.9065 23.3034 19.9997 21.2102 19.9997 18.6314C19.9997 17.085 19.2407 15.6424 17.9678 14.7702ZM16.1292 6.92532H17.0249V14.2705C16.7373 14.1573 16.4356 14.0725 16.1292 14.0253V6.92532ZM12.4519 9.37685H13.3476V14.3978C13.0317 14.5439 12.73 14.7231 12.4519 14.9352V9.37685ZM18.5383 20.5266C17.8641 21.6628 16.643 22.3558 15.3277 22.3558C13.2675 22.3558 11.5985 20.6822 11.5985 18.6267C11.5985 17.118 12.5084 15.7555 13.9039 15.1804C13.9605 15.1709 14.0124 15.1474 14.0595 15.1191C14.4649 14.9682 14.8987 14.8928 15.3324 14.8928C15.4314 14.8928 15.5257 14.8975 15.6247 14.9069H15.6294C16.1952 14.9494 16.7468 15.1238 17.2323 15.4161C19.0049 16.4674 19.5896 18.7539 18.5383 20.5266Z" fill="#AAAAAA"/>
<path d="M15.3326 18.2448C15.0026 18.2448 14.7386 17.9808 14.7386 17.6508C14.7386 17.3207 14.9978 17.0567 15.3279 17.052C15.6579 17.052 15.9219 17.3207 15.9219 17.646C15.9219 17.9053 16.134 18.1175 16.3933 18.1175C16.6573 18.1175 16.8695 17.9101 16.8742 17.646C16.8742 17.0143 16.4876 16.4439 15.8983 16.2128V15.8215C15.8983 15.5622 15.6862 15.3501 15.4269 15.3501C15.1676 15.3501 14.9554 15.5622 14.9554 15.8215V16.161C14.1351 16.3731 13.6401 17.2123 13.8522 18.0326C14.022 18.7115 14.6301 19.183 15.3279 19.183C15.6532 19.183 15.9172 19.4517 15.9172 19.777C15.9172 20.1023 15.6484 20.3663 15.3231 20.3663C14.9978 20.3663 14.7338 20.0976 14.7338 19.7723C14.7338 19.513 14.5217 19.3008 14.2624 19.3008C14.0031 19.3008 13.7957 19.5083 13.8004 19.7676V19.7723C13.8051 20.47 14.2765 21.0829 14.9507 21.2573V21.4695C14.9507 21.7288 15.1629 21.9409 15.4222 21.9409C15.6814 21.9409 15.8936 21.7288 15.8936 21.4695V21.2102C16.6856 20.899 17.0722 20.008 16.7658 19.2207C16.5348 18.6314 15.9643 18.2448 15.3326 18.2448Z" fill="#AAAAAA"/>
<path d="M6.41752 12.2056H4.57887C4.31957 12.2056 4.10742 12.4177 4.10742 12.677V20.0787C4.10742 20.338 4.31957 20.5502 4.57887 20.5502H6.41752C6.67681 20.5502 6.88896 20.338 6.88896 20.0787V12.677C6.88896 12.4177 6.67681 12.2056 6.41752 12.2056ZM5.94607 19.6544H5.05032V13.1485H5.94607V19.6544Z" fill="#AAAAAA"/>
<path d="M10.1421 11.1211H8.30348C8.04418 11.1211 7.83203 11.3332 7.83203 11.5925V20.1257C7.83203 20.385 8.04418 20.5972 8.30348 20.5972H10.1421C10.4014 20.5972 10.6136 20.385 10.6136 20.1257V11.5925C10.6136 11.3332 10.4014 11.1211 10.1421 11.1211ZM9.67068 19.6543H8.77493V12.064H9.67068V19.6543Z" fill="#AAAAAA"/>
<path d="M2.69291 16.2607H0.85426C0.594964 16.2607 0.382812 16.4729 0.382812 16.7322V20.0795C0.382812 20.3388 0.594964 20.5509 0.85426 20.5509H2.69291C2.9522 20.5509 3.16436 20.3388 3.16436 20.0795V16.7322C3.16436 16.4729 2.9522 16.2607 2.69291 16.2607ZM2.22146 19.6552H1.32571V17.2036H2.22146V19.6552Z" fill="#AAAAAA"/>
<path d="M17.8973 0L14.6726 0.00471448C14.4133 0 14.2012 0.212152 14.1965 0.471448C14.1918 0.730744 14.4039 0.942896 14.6632 0.94761C14.6679 0.94761 14.6679 0.94761 14.6726 0.94761L16.7612 0.942896L11.6459 6.03925L9.85916 4.2666C9.76958 4.18174 9.647 4.13931 9.52443 4.14403C9.40185 4.13931 9.27927 4.18174 9.1897 4.2666L0.137899 13.3184C-0.0459662 13.5023 -0.0459662 13.7993 0.137899 13.9784C0.227474 14.068 0.345336 14.1152 0.472627 14.1152C0.599917 14.1152 0.717779 14.068 0.807354 13.9784L9.52914 5.25664L11.3159 7.05758C11.4008 7.15187 11.5234 7.20372 11.6507 7.20844C11.7779 7.20372 11.8958 7.14715 11.9854 7.05758L17.4259 1.61235L17.4212 3.7103C17.4212 3.97431 17.6286 4.18646 17.8926 4.19589C18.1566 4.19117 18.3641 3.97431 18.3641 3.7103L18.3688 0.476162C18.3688 0.216866 18.1566 0 17.8973 0Z" fill="#AAAAAA"/>
</svg>

<svg xmlns="http://www.w3.org/2000/svg" width="20" height="24" fill="none"><path fill="#AAA" d="M17.97 14.77V6.42c0-.26-.21-.44-.47-.44h-1.83c-.26 0-.48.18-.48.44v7.53c-.3.01-.6.05-.9.12V8.88c0-.26-.22-.45-.48-.45h-1.82c-.26 0-.48.19-.48.45v7.04a4.67 4.67 0 106.46-1.15zm-1.84-7.84h.9v7.34a4.2 4.2 0 00-.9-.24v-7.1zm-3.68 2.45h.9v5.02a4.8 4.8 0 00-.9.54V9.38zm6.09 11.15a3.73 3.73 0 11-2.92-5.62 3.73 3.73 0 012.9 5.62z"/><path fill="#AAA" d="M15.33 18.24a.6.6 0 01-.6-.59c0-.33.27-.6.6-.6.33 0 .6.27.6.6 0 .26.2.47.46.47.27 0 .48-.21.48-.47 0-.64-.38-1.2-.97-1.44v-.39a.47.47 0 00-.47-.47.47.47 0 00-.47.47v.34a1.54 1.54 0 00.37 3.02.6.6 0 01.59.6.6.6 0 01-.6.59.6.6 0 01-.59-.6.47.47 0 00-.47-.47c-.26 0-.46.2-.46.47 0 .7.48 1.31 1.15 1.49v.2c0 .27.21.48.47.48s.47-.21.47-.47v-.26a1.54 1.54 0 00-.56-2.97zM6.42 12.2H4.58a.47.47 0 00-.47.48v7.4c0 .26.21.47.47.47h1.84c.26 0 .47-.21.47-.47v-7.4a.47.47 0 00-.47-.47zm-.47 7.45h-.9v-6.5h.9v6.5zM10.14 11.12H8.3a.47.47 0 00-.47.47v8.54c0 .26.21.47.47.47h1.84c.26 0 .47-.21.47-.47v-8.54a.47.47 0 00-.47-.47zm-.47 8.53h-.9v-7.59h.9v7.6zM2.7 16.26H.84a.47.47 0 00-.47.47v3.35c0 .26.21.47.47.47H2.7c.26 0 .47-.21.47-.47v-3.35a.47.47 0 00-.47-.47zm-.48 3.4h-.9V17.2h.9v2.46zM17.9 0h-3.23a.47.47 0 000 .94h2.1l-5.12 5.1-1.8-1.77a.46.46 0 00-.33-.13.46.46 0 00-.33.13L.14 13.32a.47.47 0 00.33.8c.13 0 .25-.05.34-.14l8.72-8.72 1.79 1.8c.08.1.2.14.33.15a.5.5 0 00.34-.15l5.44-5.45v2.1c0 .26.2.48.46.49.27 0 .47-.23.47-.49V.48A.48.48 0 0017.9 0z"/></svg>
